X:2304
T:Waverly Two-Step
C:Graham Townsend
S:Marcel Robidas
R:Canadian Two-Step
M:2/4
L:1/8
Z:<http://tunes.nhcountrydance.com>.
K:D
[|"D"D/2D/2 DF | [A2A2] A/2B/2A/2F/2 | DD FG | [A2A2] A/2B/2A/2F/2 | DD F/2D/2F/2A/2 |
"D" f2 f/2e/2f/2a/2 | gf ed | "A7"c>c c/2c/2c/2c/2 | c[ce] EF ||
"A7" G2 G/2F/2G/2F/2 | EC EF | G2 G/2F/2G/2F/2 | EC E[Ae] |\
[c2e2] [c/2e/2][c/2e/2][c/2e/2][c/2e/2] | [ce][Ae] BA | "D"F2 F>F | FD FG |]
"D" [A2A2] A/2B/2A/2F/2 | DD FG | [A2A2] A/2B/2A/2F/2 | DD FA |\
f2 ff/2f/2 | af ed | "G"g2 g/2f/2g/2a/2 | gd ef ||
"G" g2 g/2f/2g/2a/2 | gd ed | "D"f2 f/2e/2f/2g/2 | fA BA |\
"A7"e2 e>f | gg fe | "D"[d2f2] [df]>[df] | [df] |]

